svgs/chollometro.svg

<svg xmlns="http://www.w3.org/2000/svg" viewBox="0 0 192 192"><path d="M76.04 172.869c-15.714-4.222-29.826-15.502-37.321-29.829-3.375-6.452-3.971-9.5-4.002-20.465-.032-11.744.366-13.533 4.505-20.233 4.166-6.746 15.62-17.221 18.829-17.221.743 0 .859 2.193.259 4.883-4.994 22.389 6.251 43.702 23.06 43.702 9.001 0 14.168-4.69 14.168-12.859 0-7.464-2.683-12.53-12.419-23.445C72.407 85.391 68.226 76.513 67.32 63.857c-.836-11.696 1.513-19.688 8.707-29.62C79.741 29.111 95.028 16 97.292 16c.402 0 .443 1.956.093 4.347-1.1 7.494 3.889 14.841 18.658 27.473 26.252 22.455 36.941 37.423 41.104 57.555 6.33 30.617-13.903 61.078-45.394 68.342-9.228 2.129-26.129 1.728-35.713-.848Z"/></svg>

<svg
    xmlns="http://www.w3.org/2000/svg"
    viewBox="0 0 192 192"
    id="vector">
    <path
        id="path_6"
        d="M 76.04 172.869 C 60.326 168.647 46.214 157.367 38.719 143.04 C 35.344 136.588 34.748 133.54 34.717 122.575 C 34.685 110.831 35.083 109.042 39.222 102.342 C 43.388 95.596 54.842 85.121 58.051 85.121 C 58.794 85.121 58.91 87.314 58.31 90.004 C 53.316 112.393 64.561 133.706 81.37 133.706 C 90.371 133.706 95.538 129.016 95.538 120.847 C 95.538 113.383 92.855 108.317 83.119 97.402 C 72.407 85.391 68.226 76.513 67.32 63.857 C 66.484 52.161 68.833 44.169 76.027 34.237 C 79.741 29.111 95.028 16 97.292 16 C 97.694 16 97.735 17.956 97.385 20.347 C 96.285 27.841 101.274 35.188 116.043 47.82 C 142.295 70.275 152.984 85.243 157.147 105.375 C 163.477 135.992 143.244 166.453 111.753 173.717 C 102.525 175.846 85.624 175.445 76.04 172.869 Z"
        fill="#000000"
        stroke-width="12"/>
</svg>
